icons/media/stop-square-fill-24.svg

<svg width="24" height="24" viewBox="0 0 24 24" fill="none" xmlns="http://www.w3.org/2000/svg">
<path fill-rule="evenodd" clip-rule="evenodd" d="M2 3.75C2 2.7835 2.7835 2 3.75 2H20.25C21.2165 2 22 2.7835 22 3.75V20.25C22 21.2165 21.2165 22 20.25 22H3.75C2.7835 22 2 21.2165 2 20.25V3.75ZM9.75 8C8.7835 8 8 8.7835 8 9.75V14.25C8 15.2165 8.7835 16 9.75 16H14.25C15.2165 16 16 15.2165 16 14.25V9.75C16 8.7835 15.2165 8 14.25 8H9.75Z" fill="black"/>
</svg>

<svg xmlns="http://www.w3.org/2000/svg" width="24" height="24"><path fill-rule="evenodd" d="M2 3.75C2 2.784 2.784 2 3.75 2h16.5c.966 0 1.75.784 1.75 1.75v16.5A1.75 1.75 0 0120.25 22H3.75A1.75 1.75 0 012 20.25V3.75zM9.75 8A1.75 1.75 0 008 9.75v4.5c0 .966.784 1.75 1.75 1.75h4.5A1.75 1.75 0 0016 14.25v-4.5A1.75 1.75 0 0014.25 8h-4.5z"/></svg>
